!!! OTL: Literature103
!!! Chapter: 5
!!! Section: III
!!! Page: 368
!!! Mode: 
!!! Encoder: DJB
**kern
*staff1
*I"Piano
=1-
*clefG2
*k[b-]
*F:
*M2/4
4r
8r
8a/
=2
8a/L
8a/J
8dd\L
16cc\L
16bn\JJ
=3
8cc/L
8g/J
8g/L
8bn/J
=4
8cc/L
8g/J
8g/L
8bn/J
=5
8cc/L
8g/J
8g/L
8a/J
=6
8b-/L
8b-/J
16b-\LL
16dd\
16cc\
16b-\JJ
=7
8b-/L
8a/J
4gg\
=8
4a/
4ff\
=9
4.ff\
8bn\
=10
8dd\L
8cc\J
8r
8cc\
=11
8g/L
8a/J
8b-\L
8dd\J
=12
!!linebreak:original
8.g/L
16a/Jk
4b-\
=13
16a\LL
16a\
16b-\
16cc\JJ
8dd\L
8ee\J
=14
8.ff\L
16dd\Jk
4cc\
=15
8r
16g/LL
16g/JJ
16dd\LL
16g\
16g\
16a\JJ
=16
8g/L
8f/J
4r
==
*-
